X:1
T:Title
%%score ( 1 2 ) ( 3 4 )
L:1/8
Q:1/4=105
M:6/8
K:C
V:1 treble nm="Grand Piano, Soprano"
V:2 treble 
V:3 bass nm="Choir Pad, Tulsa, R. George Halls, 1879"
V:4 bass 
V:1
 [CE]/[DF]/ [EG]2 [EG] [EG]2 | [Ec] [Fc]2- [Fc] [FA]2 | [FA][EG][FA] [EG][DF][EG] | %3
w: By~R.~George~Halls,~1879 * * * *|||
 [DF] [CE]2- [CE]2- [CE]/ z/ | [CE]/[DF]/ [EG]2 [EG] [EG]2 | [Ec] [Fc]2- [Fc] [FA]2 | %6
w: |||
 [Fc]BA [FG]GA | [FB] [Ec]2- [Ec]2- [Ec]/ z/ | [Ec] [Fd]2 [Fd] [Fd]2 | [Ge] [Ec]2- [Ec] [EG]2 | %10
w: ||||
 [EG] [FA]2 [FA][Ac][GB] | [FA] [EG]2- [EG]2- [EG]/ z/ | C/-[CD]/CE [EG] [Ec]2 | [EG]AB c [EG]2 | %14
w: ||||
 [Ec][Ge][Fd] [Ec] [Fd]2 | [FB] [Ec]2- [Ec]2- [Ec]/ z/ | CCE G [Ec]2 | [EG] [FA]2- [FA] [Fc]2 | %18
w: ||||
 [FA][EG][FA] [EG][DF][EG] | [DF] [CE]2- [CE]2- [CE]/ z/ | CCE G [Ec]2 | [EG]AB c [EG]2 | %22
w: ||||
 [Ec][Ge][Fd] [Ec] [Fd]2 | [DB] [Ec]2- [Ec]3- | [Ec]3 z3 |] %25
w: |||
V:2
 x6 | x6 | x6 | x6 | x6 | x6 | z F2 z F2 | x6 | x6 | x6 | x6 | x6 | .E3 z3 | z F2- F/ z/ z z | x6 | %15
 x6 | x6 | x6 | x6 | x6 | x6 | z F2- F/ z/ z z | x6 | x6 | x6 |] %25
V:3
 [C,G,] [C,C]2 [C,C] [C,C]2 | [C,C] [F,A,]2- [F,A,] [F,C]2 | [F,C] [G,C]2 G, [G,,G,]2 | %3
 [G,,G,] [C,G,]2- [C,G,]2- [C,G,]/ z/ | [C,G,] [C,C]2 [C,C] [C,C]2 | %5
 [C,G,] [F,A,]2- [F,A,] [F,C]2 | [F,A,] G,2 G, [G,,G,]2 | [G,,G,] [C,G,]2- [C,G,]2- [C,G,]/ z/ | %8
 [C,G,] G,2 G, G,2 | G, [C,G,]2- [C,G,] [C,C]2 | [C,C] [F,C]2 [F,C] [F,C]2 | %11
 [F,C] [C,C]2- [C,C]2- [C,C]/ z/ | G,/F,/E,G, [C,G,] [C,G,]2 | [C,C]CB, A, [C,C]2 | %14
 [C,C] G,2 G, [G,,G,]2 | [G,,G,] [C,G,]2- [C,G,]2- [C,G,]/ z/ | C,C,E, G, [C,C]2 | %17
 [C,C] [F,C]2- [F,C] [F,A,]2 | [F,C] G,2 G, [G,,G,]2 | [G,,G,] [C,G,]2 [C,G,] [C,G,]2 | %20
 C,C,E, G, [C,C]2 | [C,C]CB, A, [C,C]2 | [C,C] G,2 G, [G,,G,]2 | [G,,G,] [C,G,]2- [C,G,]3- | %24
 [C,G,]3 z3 |] %25
V:4
 x6 | x6 | x6 | x6 | x6 | x6 | x6 | x6 | x6 | x6 | x6 | x6 | C, C,2 z3 | z F,2- F,/ z/ z z | x6 | %15
 x6 | x6 | x6 | x6 | x6 | x6 | z F,2- F,/ z/ z z | x6 | x6 | x6 |] %25

